svgs/solid/cloud-question.svg

<svg xmlns="http://www.w3.org/2000/svg" viewBox="0 0 640 512"><!--! Font Awesome Pro 6.4.2 by @fontawesome - https://fontawesome.com License - https://fontawesome.com/license (Commercial License) Copyright 2023 Fonticons, Inc. --><path d="M144 480C64.5 480 0 415.5 0 336c0-62.8 40.2-116.2 96.2-135.9c-.1-2.7-.2-5.4-.2-8.1c0-88.4 71.6-160 160-160c59.3 0 111 32.2 138.7 80.2C409.9 102 428.3 96 448 96c53 0 96 43 96 96c0 12.2-2.3 23.8-6.4 34.6C596 238.4 640 290.1 640 352c0 70.7-57.3 128-128 128H144zm89.8-282.7l-.4 1.2c-4.4 12.5 2.1 26.2 14.6 30.6s26.2-2.1 30.6-14.6l.4-1.2c1.1-3.2 4.2-5.3 7.5-5.3h58.3c8.4 0 15.1 6.8 15.1 15.1c0 5.4-2.9 10.4-7.6 13.1l-44.3 25.4c-7.5 4.3-12.1 12.2-12.1 20.8V296c0 13.3 10.7 24 24 24c13.1 0 23.8-10.5 24-23.6l32.3-18.5c19.6-11.3 31.7-32.2 31.7-54.8c0-34.9-28.3-63.1-63.1-63.1H286.6c-23.7 0-44.8 14.9-52.8 37.3zM352 384a32 32 0 1 0 -64 0 32 32 0 1 0 64 0z"/></svg>

<svg xmlns="http://www.w3.org/2000/svg" viewBox="0 0 640 512"><!--! Font Awesome Pro 6.1.1 by @fontawesome - https://fontawesome.com License - https://fontawesome.com/license (Commercial License) Copyright 2022 Fonticons, Inc. --><path d="M144 480C64.47 480 0 415.5 0 336C0 273.2 40.17 219.8 96.2 200.1C96.07 197.4 96 194.7 96 192C96 103.6 167.6 32 256 32C315.3 32 367 64.25 394.7 112.2C409.9 101.1 428.3 96 448 96C501 96 544 138.1 544 192C544 204.2 541.7 215.8 537.6 226.6C596 238.4 640 290.1 640 352C640 422.7 582.7 480 512 480H144zM233.4 198.5C228.9 211 235.5 224.7 247.1 229.2C260.5 233.6 274.2 227.1 278.6 214.6L279.1 213.3C280.2 210.1 283.2 208 286.6 208H344.9C353.2 208 360 214.8 360 223.1C360 228.6 357.1 233.6 352.4 236.3L308.1 261.7C300.6 266 296 273.9 296 282.5V296C296 309.3 306.7 320 320 320C333.1 320 343.8 309.5 343.1 296.4L376.3 277.9C395.9 266.7 408 245.8 408 223.1C408 188.3 379.7 160 344.9 160H286.6C262.9 160 241.8 174.9 233.8 197.3L233.4 198.5zM320 352C302.3 352 288 366.3 288 384C288 401.7 302.3 416 320 416C337.7 416 352 401.7 352 384C352 366.3 337.7 352 320 352z"/></svg>
